client/public/img/game/shared/particles/casings/casing_12ga_he.svg

<?xml version="1.0" encoding="UTF-8" standalone="no"?>
<svg
   width="22"
   height="61"
   viewBox="0 0 22 61"
   fill="none"
   version="1.1"
   id="svg4"
   xmlns="http://www.w3.org/2000/svg"
   xmlns:svg="http://www.w3.org/2000/svg">
  <defs
     id="defs4" />
  <path
     d="M2.32031 53.4969V7.67188H19.1879V53.4969H2.32031Z"
     fill="#008000"
     id="path1" />
  <path
     d="M2.32031 7.67109V1.1958H19.1879V7.67109H2.32031Z"
     fill="#007500"
     id="path2" />
  <path
     d="M2.32031 53.4971H19.1879V1.19678H2.32031V53.4971Z"
     stroke="#006600"
     stroke-width="2"
     stroke-miterlimit="3.99393"
     id="path3" />
  <path
     d="M1.37891 59.2379C1.37891 59.4474 1.5487 59.6172 1.75816 59.6172H19.7509C19.9602 59.6172 20.1299 59.4474 20.1299 59.2381V58.4711C20.1299 58.2617 19.9602 58.092 19.7509 58.092H19.3171V46.7358H2.19194V58.092H1.75816C1.5487 58.092 1.37891 58.2618 1.37891 58.4713V59.2379Z"
     fill="#B3B300"
     stroke="#666600"
     stroke-width="2"
     stroke-miterlimit="3.99393"
     id="path4" />
</svg>

<svg xmlns="http://www.w3.org/2000/svg" width="22" height="61" fill="none"><path fill="green" d="M2.32 53.497V7.672h16.868v45.825z"/><path fill="#007500" d="M2.32 7.671V1.196h16.868V7.67z"/><path stroke="#060" stroke-miterlimit="3.994" stroke-width="2" d="M2.32 53.497h16.868v-52.3H2.32z"/><path fill="#B3B300" stroke="#660" stroke-miterlimit="3.994" stroke-width="2" d="M1.379 59.238c0 .21.17.38.38.38H19.75a.38.38 0 0 0 .379-.38v-.767c0-.21-.17-.379-.38-.379h-.433V46.736H2.192v11.356h-.434a.38.38 0 0 0-.38.38z"/></svg>
